image/icon5.svg

<svg fill="none" height="24" viewBox="0 0 24 24" width="24" xmlns="http://www.w3.org/2000/svg"><g fill="#1e1e1e"><path d="m12.7724 1.52844c-.2564-.01891-.514-.02844-.7724-.02844v-1.5c.2953 0 .5897.010893.8828.0325082zm3.0065.67513c-.4811-.18557-.9752-.33546-1.4783-.44845l.3286-1.463547c.575.129121 1.1397.300425 1.6895.512509zm2.0546 1.066c-.2148-.14354-.4344-.27876-.6581-.40549l.7394-1.30513c.2557.14485.5065.29937.752.46341.2456.16405.4843.33669.716.51748l-.9229 1.18252c-.2027-.15818-.4116-.30925-.6264-.45279zm2.7511 2.68445c-.2969-.42159-.6244-.82074-.98-1.1942l1.0864-1.0343c.4063.4268.7807.88297 1.12 1.36478zm1.1161 2.0278c-.0988-.2387-.2062-.47308-.3218-.70275l1.3398-.6744c.1321.26248.2549.53034.3679.80313.1129.27279.2156.54899.3077.82801l-1.4242.47054c-.0807-.24414-.1705-.48582-.2694-.72453zm.7961 3.76048c-.0126-.5155-.0632-1.0293-.1514-1.5374l1.4779-.25644c.1008.58064.1586 1.16794.1731 1.75704zm-.1986 2.3061c.0505-.2534.0914-.5079.1228-.7631l1.4888.1836c-.036.2917-.0828.5826-.1404.8722s-.1257.5762-.2041.8595l-1.4456-.4001c.0685-.2478.1281-.4986.1785-.7521zm-1.4272 3.5691c.2758-.4357.5192-.8911.7282-1.3625l1.3713.6079c-.2388.5387-.517 1.0592-.8323 1.5571zm-1.4464 1.8071c.1827-.1827.3582-.3716.5261-.5663l1.1358.9798c-.1919.2225-.3924.4384-.6012.6472z"/><path d="m12 1.5c-1.7267 0-3.42682.42585-4.94966 1.23983-1.52285.81397-2.82145 1.99095-3.78077 3.42668s-1.54976 3.08589-1.71901 4.80429.08791 3.4521.74871 5.0474c.66079 1.5953 1.70482 3.003 3.0396 4.0984 1.33479 1.0954 2.91913 1.8448 4.61268 2.1816 1.69355.3369 3.44405.2509 5.09645-.2503 1.6524-.5013 3.1556-1.4023 4.3766-2.6233l1.0607 1.0607c-1.3954 1.3954-3.1134 2.4251-5.0019 2.998-1.8884.5728-3.889.6711-5.82448.2861-1.9355-.385-3.74617-1.2414-5.27164-2.4933-1.52546-1.2519-2.71864-2.8607-3.473831-4.6839-.755192-1.8232-1.049091-3.8045-.8556627-5.7684.1934287-1.96392.8682127-3.84981 1.9645837-5.49064 1.09637-1.64084 2.58048-2.98596 4.32087-3.91622 1.7404-.930255 3.68336-1.41694 5.65676-1.41694z"/><path d="m11.25 4.5c.4142 0 .75.33579.75.75v7.8148l4.8721 2.784c.3596.2055.4846.6637.2791 1.0233s-.6637.4846-1.0233.2791l-5.25-3c-.2337-.1335-.3779-.3821-.3779-.6512v-8.25c0-.41421.3358-.75.75-.75z"/></g></svg>

<svg width="24" height="24" viewBox="0 0 24 24" fill="none" xmlns="http://www.w3.org/2000/svg">
<path d="M12.7724 1.52844C12.516 1.50953 12.2584 1.5 12 1.5V0C12.2953 0 12.5897 0.010893 12.8828 0.0325082L12.7724 1.52844ZM15.7789 2.20357C15.2978 2.018 14.8037 1.86811 14.3006 1.75512L14.6292 0.291573C15.2042 0.420694 15.7689 0.591998 16.3187 0.804082L15.7789 2.20357ZM17.8335 3.26957C17.6187 3.12603 17.3991 2.99081 17.1754 2.86408L17.9148 1.55895C18.1705 1.7038 18.4213 1.85832 18.6668 2.02236C18.9124 2.18641 19.1511 2.35905 19.3828 2.53984L18.4599 3.72236C18.2572 3.56418 18.0483 3.41311 17.8335 3.26957ZM20.5846 5.95402C20.2877 5.53243 19.9602 5.13328 19.6046 4.75982L20.691 3.72552C21.0973 4.15232 21.4717 4.60849 21.811 5.0903L20.5846 5.95402ZM21.7007 7.98182C21.6019 7.74312 21.4945 7.50874 21.3789 7.27907L22.7187 6.60467C22.8508 6.86715 22.9736 7.13501 23.0866 7.4078C23.1995 7.68059 23.3022 7.95679 23.3943 8.23581L21.9701 8.70635C21.8894 8.46221 21.7996 8.22053 21.7007 7.98182ZM22.4968 11.7423C22.4842 11.2268 22.4336 10.713 22.3454 10.2049L23.8233 9.94846C23.9241 10.5291 23.9819 11.1164 23.9964 11.7055L22.4968 11.7423ZM22.2982 14.0484C22.3487 13.795 22.3896 13.5405 22.421 13.2853L23.9098 13.4689C23.8738 13.7606 23.827 14.0515 23.7694 14.3411C23.7118 14.6307 23.6437 14.9173 23.5653 15.2006L22.1197 14.8005C22.1882 14.5527 22.2478 14.3019 22.2982 14.0484ZM20.871 17.6175C21.1468 17.1818 21.3902 16.7264 21.5992 16.255L22.9705 16.8629C22.7317 17.4016 22.4535 17.9221 22.1382 18.42L20.871 17.6175ZM19.4246 19.4246C19.6073 19.2419 19.7828 19.053 19.9507 18.8583L21.0865 19.8381C20.8946 20.0606 20.6941 20.2765 20.4853 20.4853L19.4246 19.4246Z" fill="#1E1E1E"/>
<path d="M12 1.5C10.2733 1.5 8.57318 1.92585 7.05034 2.73983C5.52749 3.5538 4.22889 4.73078 3.26957 6.16651C2.31025 7.60224 1.71981 9.2524 1.55056 10.9708C1.38131 12.6892 1.63847 14.4229 2.29927 16.0182C2.96006 17.6135 4.00409 19.0212 5.33887 20.1166C6.67366 21.212 8.258 21.9614 9.95155 22.2982C11.6451 22.6351 13.3956 22.5491 15.048 22.0479C16.7004 21.5466 18.2036 20.6456 19.4246 19.4246L20.4853 20.4853C19.0899 21.8807 17.3719 22.9104 15.4834 23.4833C13.595 24.0561 11.5944 24.1544 9.65892 23.7694C7.72342 23.3844 5.91275 22.528 4.38728 21.2761C2.86182 20.0242 1.66864 18.4154 0.913449 16.5922C0.158257 14.769 -0.135642 12.7877 0.0577863 10.8238C0.251215 8.85988 0.925999 6.97399 2.02237 5.33316C3.11874 3.69232 4.60285 2.3472 6.34324 1.41694C8.08364 0.486685 10.0266 0 12 0V1.5Z" fill="#1E1E1E"/>
<path d="M11.25 4.5C11.6642 4.5 12 4.83579 12 5.25V13.0648L16.8721 15.8488C17.2317 16.0543 17.3567 16.5125 17.1512 16.8721C16.9457 17.2317 16.4875 17.3567 16.1279 17.1512L10.8779 14.1512C10.6442 14.0177 10.5 13.7691 10.5 13.5V5.25C10.5 4.83579 10.8358 4.5 11.25 4.5Z" fill="#1E1E1E"/>
</svg>
